Papirus/32x32/places/folder-blue-mail-cloud.svg

<svg xmlns="http://www.w3.org/2000/svg" width="32" height="32" version="1">
 <rect style="opacity:0.2" width="28" height="18" x="2" y="11" rx="1.4" ry="1.385"/>
 <path style="fill:#4877b1" d="M 2,22.6 C 2,23.3756 2.6244,24 3.4,24 H 28.6 C 29.3756,24 30,23.3756 30,22.6 V 7.4 C 30,6.6244 29.37558,6.0055399 28.6,6 H 15 V 4.4 C 15,3.6244 14.3756,3 13.6,3 H 3.4 C 2.6244,3 2,3.6244 2,4.4"/>
 <rect style="opacity:0.2" width="28" height="18" x="2" y="9" rx="1.4" ry="1.385"/>
 <rect style="fill:#e4e4e4" width="24" height="11" x="4" y="8" rx="1.333" ry="1.375"/>
 <rect style="fill:#5294e2" width="28" height="18" x="2" y="10" rx="1.4" ry="1.385"/>
 <path style="opacity:0.1;fill:#ffffff" d="M 3.4003906,3 C 2.6247906,3 2,3.6247906 2,4.4003906 v 1 C 2,4.6247906 2.6247906,4 3.4003906,4 H 13.599609 C 14.375209,4 15,4.6247906 15,5.4003906 v -1 C 15,3.6247906 14.375209,3 13.599609,3 Z M 15,6 V 7 H 28.599609 C 29.375189,7.0055399 30,7.6247906 30,8.4003906 v -1 C 30,6.6247906 29.375189,6.0055399 28.599609,6 Z"/>
 <path style="fill:#1d344f" d="M 15.6004,14 A 3.99996,4.5455 0 0 0 11.8144,17.08875 3.20004,3.636375 0 0 0 10,20.36375 3.20004,3.636375 0 0 0 13.2004,24 a 3.20004,3.636375 0 0 0 2.1264,-0.925 3.99996,4.5455 0 0 0 0.2736,0.01625 3.99996,4.5455 0 0 0 1.6908,-0.4325 3.20004,3.636375 0 0 0 1.5096,0.4325 A 3.20004,3.636375 0 0 0 22,19.455 a 3.20004,3.636375 0 0 0 -3.2004,-3.63625 3.20004,3.636375 0 0 0 -0.006,0 A 3.99996,4.5455 0 0 0 15.5992,14 Z"/>
</svg>

<svg xmlns="http://www.w3.org/2000/svg" width="32" height="32" version="1">
 <rect style="opacity:0.2" width="28" height="18" x="2" y="11" rx="1.4" ry="1.4"/>
 <path style="fill:#4877b1" d="M 3.4,3 C 2.625,3 2,3.625 2,4.4 V 22.6 C 2,23.375 2.625,24 3.4,24 H 28.6 C 29.375,24 30,23.375 30,22.6 V 7.4 C 30,6.625 29.375,6 28.6,6 H 15 V 4.4 C 15,3.625 14.375,3 13.6,3 Z"/>
 <rect style="opacity:0.2" width="28" height="18" x="2" y="9" rx="1.4" ry="1.4"/>
 <rect style="fill:#e4e4e4" width="24" height="11" x="4" y="8" rx="1.4" ry="1.4"/>
 <rect style="fill:#5294e2" width="28" height="18" x="2" y="10" rx="1.4" ry="1.4"/>
 <path style="opacity:0.1;fill:#ffffff" d="M 3.4,3 C 2.625,3 2,3.625 2,4.4 V 5.4 C 2,4.625 2.625,4 3.4,4 H 13.6 C 14.375,4 15,4.625 15,5.4 V 4.4 C 15,3.625 14.375,3 13.6,3 Z M 15,6 V 7 H 28.6 C 29.375,7 30,7.625 30,8.4 V 7.4 C 30,6.625 29.375,6 28.6,6 Z"/>
 <path style="fill:#1d344f" d="M 15.6,14 A 4,4.5455 0 0 0 11.814,17.089 3.2,3.6364 0 0 0 10,20.364 3.2,3.6364 0 0 0 13.2,24 3.2,3.6364 0 0 0 15.327,23.075 4,4.5455 0 0 0 15.6,23.091 4,4.5455 0 0 0 17.291,22.659 3.2,3.6364 0 0 0 18.801,23.091 3.2,3.6364 0 0 0 22,19.455 3.2,3.6364 0 0 0 18.8,15.819 3.2,3.6364 0 0 0 18.794,15.819 4,4.5455 0 0 0 15.599,14 Z"/>
</svg>
